!!!OTL: DIE EULE AUF DEM ZAUNE SASS
!!!ARE: Europa, Mitteleuropa, Deutschland, Neisse, Walldorf
!!!SCT: E0171
!!!YEM: Copyright 1995, estate of Helmut Schaffrath.
**kern
*ICvox
*Ivox
*M3/4
*k[b-]
*F:
{8c
=1
8c
8c
4f
4f
=2
8f
8g
4a
8r}
{8g
=3
8f
8f
4f
4g
=4
4a
4g
8r}
{8f
=5
8f
8a
4cc
8cc
8b-
=6
8a
8cc
4g
8r}
{8f
=7
8a
8cc
4a
4f
=8
4g
4f
8r}
==
!!!AGN: erzaehlendes Volks - Lied, Sage, Tier - Maerchen
!!!ONB: ESAC (Essen Associative Code) Database: ERK1
!!!AMT: simple triple
!!!AIN: vox
!!!EED: Helmut Schaffrath
!!!EEV: 1.0
*-
